assets/images/svg/add-servicemen.svg

<svg width="13" height="13" viewBox="0 0 13 13" fill="none" xmlns="http://www.w3.org/2000/svg">
<path d="M9.75 1.08325H3.25C2.35083 1.08325 1.625 1.80367 1.625 2.692V8.60159C1.625 9.48992 2.35083 10.2158 3.25 10.2158H3.66167C4.08958 10.2158 4.50667 10.3837 4.81 10.687L5.73625 11.6024C6.15875 12.0195 6.84125 12.0195 7.26375 11.6024L8.19 10.687C8.49333 10.3837 8.91042 10.2158 9.33833 10.2158H9.75C10.6492 10.2158 11.375 9.48992 11.375 8.60159V2.692C11.375 1.80367 10.6492 1.08325 9.75 1.08325ZM6.5 3.00617C7.085 3.00617 7.55625 3.48284 7.55625 4.06242C7.55625 4.63659 7.10125 5.097 6.53792 5.11867C6.51625 5.11867 6.48375 5.11867 6.45667 5.11867C5.88792 5.097 5.43833 4.63659 5.43833 4.06242C5.44375 3.48284 5.915 3.00617 6.5 3.00617ZM7.98958 7.957C7.17167 8.50409 5.82833 8.50409 5.01042 7.957C4.29 7.48034 4.29 6.6895 5.01042 6.20742C5.83375 5.66034 7.17708 5.66034 7.98958 6.20742C8.71 6.6895 8.71 7.47492 7.98958 7.957Z" fill="#00162E"/>
</svg>

<svg xmlns="http://www.w3.org/2000/svg" width="13" height="13" fill="none" viewBox="0 0 13 13"><path fill="#00162e" d="M9.75 1.083h-6.5c-.9 0-1.625.72-1.625 1.609v5.91a1.62 1.62 0 0 0 1.625 1.614h.412c.428 0 .845.168 1.148.471l.926.915a1.09 1.09 0 0 0 1.528 0l.926-.915c.303-.303.72-.471 1.148-.471h.412c.9 0 1.625-.726 1.625-1.614v-5.91c0-.888-.726-1.609-1.625-1.609M6.5 3.006a1.058 1.058 0 0 1 .038 2.113h-.081a1.054 1.054 0 0 1-1.019-1.057A1.066 1.066 0 0 1 6.5 3.006m1.49 4.951c-.818.547-2.162.547-2.98 0-.72-.477-.72-1.267 0-1.75.824-.547 2.167-.547 2.98 0 .72.482.72 1.268 0 1.75"/></svg>
